X: 1763
T: April Storm
R: jig
M: 6/8
K: Ddorian
|:d2 d2 Ac|d2 d2 cd|efe dcA|G2E Gce|
d2 d2 Ac|d2 d2 de|fed cAG|ECE D3:|
|:D2D EDC|DEG A2B|c2c GAc|AcA G2E|
D2D EDC|DEG A2e|fed cAG|ECE D3:|

